Adwaita++-Light/panel/22/ao-app-tray.svg

<svg height="22" width="22" xmlns="http://www.w3.org/2000/svg">
  <g fill="#444">
    <path d="m11.041016 3c-.325147-.0076971-.647915.0776787-.929688.2441406l-5.2226561 3.0898438c-.5494331.3249686-.8887119.9261769-.8886719 1.5761718v6.1796878c-.0000002.403272.1429115.778631.3730469 1.089844l13.4628911-7.9980474c-.149755-.3480549-.392378-.6511537-.72461-.8476562l-5.222656-3.0917969c-.257101-.1518688-.54904-.2348385-.845703-.2421875zm6.888672 4.4101562a1.7755407 1.8191524 0 0 1 .013671.0527344c-.004398-.0178103-.008757-.0351017-.013671-.0527344zm-13.4277349 7.9414058c.0127561.013525.0258772.025926.0390625.039063a1.7755407 1.8191524 0 0 1 -.0390625-.039063z"/>
    <path d="m17.848092 7.1757758-13.4873066 8.0093422a1.7755407 1.8191524 0 0 0 .5271257.480466l5.2241779 3.090613a1.7755407 1.8191524 0 0 0 1.775822 0l5.224178-3.090613a1.7755407 1.8191524 0 0 0 .887911-1.574993v-6.1812243a1.7755407 1.8191524 0 0 0 -.151908-.7335909z" opacity=".3"/>
  </g>
</svg>

<svg xmlns="http://www.w3.org/2000/svg" width="22" height="22" version="1.1">
 <defs>
  <style id="current-color-scheme" type="text/css">
   .ColorScheme-Text { color:#444444; } .ColorScheme-Highlight { color:#4285f4; }
  </style>
 </defs>
 <path style="fill:currentColor" class="ColorScheme-Text" d="M 11.041016 3 C 10.715869 2.9923029 10.393101 3.0776787 10.111328 3.2441406 L 4.8886719 6.3339844 C 4.3392388 6.658953 3.99996 7.2601613 4 7.9101562 L 4 14.089844 C 3.9999998 14.493116 4.1429115 14.868475 4.3730469 15.179688 L 17.835938 7.1816406 C 17.686183 6.8335857 17.44356 6.5304869 17.111328 6.3339844 L 11.888672 3.2421875 C 11.631571 3.0903187 11.339632 3.007349 11.042969 3 L 11.041016 3 z M 17.929688 7.4101562 A 1.7755407 1.8191524 0 0 1 17.943359 7.4628906 C 17.938961 7.4450803 17.934602 7.4277889 17.929688 7.4101562 z M 4.5019531 15.351562 C 4.5147092 15.365087 4.5278303 15.377488 4.5410156 15.390625 A 1.7755407 1.8191524 0 0 1 4.5019531 15.351562 z"/>
 <path style="fill:currentColor;opacity:0.3" class="ColorScheme-Text" d="M 17.848092,7.1757758 4.3607854,15.185118 a 1.7755407,1.8191524 0 0 0 0.5271257,0.480466 l 5.2241779,3.090613 a 1.7755407,1.8191524 0 0 0 1.775822,0 l 5.224178,-3.090613 A 1.7755407,1.8191524 0 0 0 18,14.090591 V 7.9093667 A 1.7755407,1.8191524 0 0 0 17.848092,7.1757758 Z"/>
</svg>
